!!!!SEGMENT: pl-kk--kk-i-476--006_studzinski-wincenty--msza-agnus.krn
!!!cenid: 18xx:1376a
!!!COM: Studziński, Wincenty
!!!COM-rismid: pe41023091
!!!CDT: 1815/03/30-1854/07/15
!!!CNT: Polish
!!!OPR: Msza
!!!OTL: Benedictus
!!!OMV: 006
!!!PDT:
!!!AGN: Sacred; Mass
!!!SMS-siglum: PL-Kk
!!!SMS-shelfmark: Kk.I.476
!!!SMS-shelfwork: 001-006 M
!!!SMS-variant:
!!!SMS-altvar:
!!!NIFC-rismid: 1001140245
!!!URL-scan: http://repozytorium.nifc.pl/skany/pl-kk-nut--i-476
!!!ONB-nifc: UWAGA: części Mszy: 1. Kirie, 2. Gloria, 3. Credo, 4. Sanctus, 5. Benedictus, 6. Agnus
!!!AIN: 1 alto 2 empty 1 soprn 1 tenor
!!!key:
**kern	**text	**dynam	**kern	**text	**dynam	**kern	**text	**dynam	**kern	**text	**kern	**text	**dynam	**kern	**text	**dynam
*part5	*part5	*part5	*part5	*part5	*part5	*part4	*part4	*part4	*part3	*part3	*part2	*part2	*part2	*part1	*part1	*part1
*	*	*	*	*	*	*group1	*	*	*group1	*	*group1	*	*	*group1	*	*
*staff6	*staff6	*	*staff5	*staff5	*	*staff4	*staff4	*	*staff3	*staff3	*staff2	*staff2	*	*staff1	*staff1	*
*Iempty	*	*	*Iempty	*	*	*Iempty	*	*	*Itenor	*	*Ialto	*	*	*Isoprn	*	*
*	*	*	*I"Benedictus	*	*	*I"Basſo	*	*	*I"Tenor	*	*I"Alto	*	*	*I"Soprano	*	*
*	*	*	*I'org	*	*	*I'B	*	*	*I'T	*	*I'A	*	*	*I'S	*	*
*clefF4	*	*	*clefG2	*	*	*clefF4	*	*	*clefC4	*	*clefC3	*	*	*clefC1	*	*
*k[b-e-a-]	*	*	*k[b-e-a-]	*	*	*k[b-e-a-]	*	*	*k[b-e-a-]	*	*k[b-e-a-]	*	*	*k[b-e-a-]	*	*
*E-:	*	*	*E-:	*	*	*E-:	*	*	*E-:	*	*E-:	*	*	*E-:	*	*
*M2/4	*	*	*M2/4	*	*	*M2/4	*	*	*M2/4	*	*M2/4	*	*	*M2/4	*	*
=1	=1	=1	=1	=1	=1	=1	=1	=1	=1	=1	=1	=1	=1	=1	=1	=1
*^	*	*	*	*	*	*	*	*	*	*	*	*	*	*	*	*
*	*	*	*	*	*	*	*	*	*	*	*	*	*	*	*	*	*below
!	!	!	!	!	!	!	!	!	!	!LO:TX:a:t=P:problem=znaki przykluczowe [B- E- A-]	!	!	!	!	!LO:TX:a:t=P:problem=znaki przykluczowe [b- e- a-]	!	!
!	!	!	!	!	!	!	!LO:TX:a:t=andant	!	!	!LO:TX:a:t=andante	!	!LO:TX:a:t=Andante	!	!	!LO:TX:a:t=andante	!	!
!	!	!	!	!	!	!	!LO:TX:a:t=Benedictus	!	!LO:DY:rj	!LO:TX:a:t=Benedictus	!	!LO:TX:a:t=Benedictus	!	!	!LO:TX:a:t=Benedictus	!	!LO:DY:rj:t=po
!	!	!	!	!	!	!	!	!	!	!LO:TX:a:t=2	!	!	!	!	!	!	!
!	!	!	!	!	!	!	!	!	!	!LO:N:vis=0	!	!	!	!	!	!	!
4E-/	4E-\	Be-	.	4b- 4g/	.	.	4E-\	Be-	p	1r	.	4g\	Be-	.	4b-\	Be-	p
4E-\	4ryy	-ne-	.	4cc 4a-/	.	.	4E-\	-ne-	.	.	.	4a-\	-ne-	.	4cc\	-ne-	.
*v	*v	*	*	*	*	*	*	*	*	*	*	*	*	*	*	*	*
=2	=2	=2	=2	=2	=2	=2	=2	=2	=2	=2	=2	=2	=2	=2	=2	=2
4E-\	-di-	.	4b- 4g/	.	.	4E-\	-dic-	.	.	.	4g\	-di-	.	4b-\	-dic-	.
8E-\	-ctus	.	8g 8e-/	.	.	8E-\	-tus	.	.	.	8e-\	-ctus	.	8g\	-tus	.
8r	.	.	8r	.	.	8r	.	.	.	.	8r	.	.	8r	.	.
=3	=3	=3	=3	=3	=3	=3	=3	=3	=3	=3	=3	=3	=3	=3	=3	=3
*	*	*	*^	*	*	*	*	*	*	*	*	*	*	*	*	*
!	!	!	!	!	!	!	!	!	!	!	!	!LO:TX:a:t=2	!	!	!	!	!
!	!	!	!	!	!	!	!	!	!	!	!	!LO:N:vis=0	!	!	!	!	!
4B- 4E-\	Be-	.	4g/	2r	.	.	4E-\	Be-	.	4B-\	Be-	1r	.	.	4g\	Be-	.
4c 4E-\	-ne-	.	4a-/	.	.	.	4E-\	-ne-	.	4c\	-ne-	.	.	.	4a-\	-ne-	.
=4	=4	=4	=4	=4	=4	=4	=4	=4	=4	=4	=4	=4	=4	=4	=4	=4	=4
4B- 4E-\	-di-	.	4g/	2r	.	.	4E-\	-dic-	.	4B-\	-dic-	.	.	.	4g\	-dic-	.
8GL 8E-\	-ctus	.	8e-/L	.	.	.	8E-\	-tus	.	8G/	-tus	.	.	.	8e-/	-tus	.
8GJ 8E-\	qui	.	8e-/J	.	.	.	8E-\	qui	.	8G/	qui	.	.	.	8e-/	qui	.
!	!	!	!	!	!	!	!	!	!	!	!	!	!	!	!LO:LB:g=original	!	!
=5	=5	=5	=5	=5	=5	=5	=5	=5	=5	=5	=5	=5	=5	=5	=5	=5	=5
4G 4BB-\	ve-	.	4en/	8r	.	.	4BB-/	ve-	.	4G/	ve-	8r	.	.	4en/	ve-	.
.	.	.	.	8B-\L	.	.	.	.	.	.	.	8B-/	qui	.	.	.	.
8A-L 8BB-\	-nit	.	8f/L	8B-\	.	.	8BB-/	-nit	.	8A-/	-nit	8B-/	ve-	.	8f/	-nit	.
8A-J 8BB-\	qui	.	8f/J	8B-\J	.	.	8BB-/	qui	.	8A-/	qui	8B-/	-nit	.	8f/	in	.
!	!	!	!	!	!	!	!LO:LB:g=original	!	!	!	!	!LO:LB:g=original	!	!	!	!	!
=6	=6	=6	=6	=6	=6	=6	=6	=6	=6	=6	=6	=6	=6	=6	=6	=6	=6
4An 4E-\	ve-	.	4f#X/	8r	.	.	4E-\	ve-	.	4An\	ve-	8r	.	.	4f#X/	ve-	.
.	.	.	.	8B-\	.	.	.	.	.	.	.	8B-/	qui	.	.	.	.
8B- 8E-\	-nit	.	8g/L	8B-\	.	.	8E-\	-nit	.	8B-\	-nit	8B-/	ve-	.	8g/	-nit	.
8B-\	in	.	8g/J	16e-\LL	.	.	8r	.	.	8B-\	in	16e-\	-nit	.	8g/	in	.
.	.	.	.	16e-\JJ	.	.	.	.	.	.	.	16e-\	in	.	.	.	.
!	!	!	!	!	!	!	!	!	!	!LO:LB:g=original	!	!	!	!	!	!	!
=7	=7	=7	=7	=7	=7	=7	=7	=7	=7	=7	=7	=7	=7	=7	=7	=7	=7
*^	*	*	*	*	*	*	*	*	*	*	*	*	*	*	*	*	*
!	!	!	!	!	!	!	!	!LO:TX:a:t=1	!	!	!	!	!	!	!	!	!	!
(8c\L	2rFF	no-	.	8a-/L	4e-\	.	.	2r	.	.	(8c\L	no-	4e-\	no-	.	(8a-/L	no-	.
8B-\)	.	.	.	8g/	.	.	.	.	.	.	8B-\J)	.	.	.	.	8g/J)	.	.
8A-\J	.	-mi-	.	8f/J	8e-\L	.	.	.	.	.	8A-\	-mi-	8e-\	-mi-	.	8f/	-mi-	.
8An\	.	-ne	.	8cc/	8e-\J	.	.	.	.	.	8An\	-ne	8e-\	-ne	.	8cc\	-ne	.
=8	=8	=8	=8	=8	=8	=8	=8	=8	=8	=8	=8	=8	=8	=8	=8	=8	=8	=8
!	!	!	!	!	!	!	!	!	!	!	!	!	!	!	!	!LO:TX:t=P:problem=korekta ołówkiem (błędna)	!	!
!	!	!	!	!	!	!	!	!	!	!	!	!	!	!	!	!LO:N:vis=4.	!	!
*	*	*	*	*	*	*above	*	*	*	*	*	*	*	*	*	*	*	*
8B-\L	8.BB-\L	.	.	8.b-/L	8d\L	do-	.	8.BB-/	Do-	.	(8B-\L	Do-	(8d\L	Do-	.	8.b-\	Do-	.
!LO:TX:a:t=c	!	!	!	!	!	!	!	!	!	!	!	!	!	!	!	!	!	!
8cn\J	.	.	.	.	8e-\J	.	.	.	.	.	8c\J)	.	8e-\J)	.	.	.	.	.
!	!	!	!	!	!	!	!	!	!	!	!	!	!	!	!	!LO:N:vis=8	!	!
.	16BB-\Jk	.	.	16b-/Jk	.	-mi-	.	16BB-/	-mi-	.	.	.	.	.	.	16b-\	-mi-	.
8c#X\L	8BB-\	.	.	8b-/	8en\L	-ni	.	8BB-/	-ni	.	8c#X\	-mi-	8en\	-mi-	.	8b-\	-ni	.
8d\J	8r	.	.	8r	8f\J	.	.	8r	.	.	8d\	-ni	8f\	-ni	.	8r	.	.
*v	*v	*	*	*	*	*	*	*	*	*	*	*	*	*	*	*	*	*
!LO:LB:g=original	!	!	!LO:LB:g=original	!LO:LB:g=original	!	!	!	!	!	!	!	!	!	!	!	!	!
=9	=9	=9	=9	=9	=9	=9	=9	=9	=9	=9	=9	=9	=9	=9	=9	=9	=9
!	!	!	!	!	!	!	!	!	!	!	!	!	!	!	!LO:TX:a:t=1	!	!
4B- 4E-\	Be-	.	2raa	4g\	.	.	4E-\	Be-	.	4B-\	Be-	4g\	Be-	.	2r	.	.
4c 4E-\	-ne-	.	.	4a-\	.	.	4E-\	-ne-	.	4c\	-ne-	4a-\	-ne-	.	.	.	.
!	!	!	!	!	!	!	!	!	!	!	!	!	!	!	!LO:PB:g=original	!	!
=10	=10	=10	=10	=10	=10	=10	=10	=10	=10	=10	=10	=10	=10	=10	=10	=10	=10
4B- 4E-\	-dic-	.	8r	4g\	.	.	4E-\	-di-	.	4B-\	-di-	4g\	-di-	.	8r	.	.
.	.	.	8e-/L	.	.	.	.	.	.	.	.	.	.	.	(8e-/L	Be-	.
8G 8E-\	-tus	.	8g/J	8e-\	.	.	8E-\	-ctus	.	8G/	-ctus	8e-\	-ctus	.	8g/J)	.	.
8r	.	.	8b-/	8r	.	.	8r	.	.	8r	.	8r	.	.	8b-/	-ne-	.
!	!	!	!	!	!	!	!	!	!	!	!	!LO:LB:g=original	!	!	!	!	!
=11	=11	=11	=11	=11	=11	=11	=11	=11	=11	=11	=11	=11	=11	=11	=11	=11	=11
4G 4E-\	Be-	.	4ee-/	4b-\	.	.	4E-\	Be-	.	4G/	Be-	4b-\	Be-	.	4ee-\	-di-	.
4A- 4E-\	-ne-	.	8ee-/L	4cc\	.	.	4E-\	-ne-	.	4A-/	-ne-	4cc\	-ne-	.	8ee-\	-ctus	.
.	.	.	8ee-/J	.	.	.	.	.	.	.	.	.	.	.	8ee-\	qui	.
=12	=12	=12	=12	=12	=12	=12	=12	=12	=12	=12	=12	=12	=12	=12	=12	=12	=12
*^	*	*	*	*	*	*	*	*	*	*	*	*	*	*	*	*	*
4G/	4E-\	-dic-	.	8.ee-/L	4b-\	.	.	4E-\	-dic-	.	4G/	-dic-	4b-\	-di-	.	(8.ee-\L	ve-	.
.	.	.	.	32dd/LL	.	.	.	.	.	.	.	.	.	.	.	32dd\LL	.	.
.	.	.	.	32cc/JJJ	.	.	.	.	.	.	.	.	.	.	.	32cc\JJJ)	.	.
8E-/L	8E-\L	-tus	.	8b-/L	8g\L	.	.	8E-\	-tus	.	8E-/	-tus	8g\	-ctus	.	8b-\	-nit	.
8B-/J	8B-\J	qui	.	8b-/J	8b-\J	.	.	8B-\	qui	.	8B-\	qui	8r	.	.	8b-\	qui	.
*v	*v	*	*	*	*	*	*	*	*	*	*	*	*	*	*	*	*	*
!	!	!	!	!	!	!	!LO:LB:g=original	!	!	!LO:LB:g=original	!	!	!	!	!	!	!
=13	=13	=13	=13	=13	=13	=13	=13	=13	=13	=13	=13	=13	=13	=13	=13	=13	=13
4B- 4E-\	ve-	.	4gg/	4g\	.	.	4E-\	ve-	.	4B-\	ve-	4g\	ve-	.	4gg\	ve-	.
8B-L 8F\	-nit	.	8dd/L	8a-\L	.	.	8F\	-nit	.	8B-\	-nit	8a-\	-nit	.	8dd\	-nit	.
8B-J 8F\	in	.	8dd/J	8a-\J	.	.	8F\	in	.	8B-\	in	8a-\	in	.	8dd\	in	.
=14	=14	=14	=14	=14	=14	=14	=14	=14	=14	=14	=14	=14	=14	=14	=14	=14	=14
4B- 4G\	no-	.	8ff/L	8b-\L	.	.	4G\	no-	.	4B-\	no-	(8b-\L	no-	.	(8ff\L	no-	.
.	.	.	8ee-/J	8e-\J	.	.	.	.	.	.	.	8e-\J)	.	.	8ee-\J)	.	.
8cL 8A-\	-mi-	.	8ddL 8c/	8ryy	.	.	8A-\	-mi-	.	8c\	-mi-	8c\	-mi-	.	8dd\	-mi-	.
8cJ 8A-\	-ne	.	8ccJ 8f/	8ryy	.	.	8A-\	-ne	.	8c\	-ne	8f\	-ne	.	8cc\	-ne	.
!	!	!	!	!	!	!	!	!	!	!	!	!	!	!	!LO:LB:g=original	!	!
=15	=15	=15	=15	=15	=15	=15	=15	=15	=15	=15	=15	=15	=15	=15	=15	=15	=15
4e- 4B-\	Do-	.	8b-/	4g\	.	.	4B-\	Do-	.	4e-\	Do-	4g\	Do-	.	(8b-\	Do-	.
.	.	.	4cc/	.	.	.	.	.	.	.	.	.	.	.	4cc^\)	.	.
4d 4B-\	-mi-	.	.	4a-\	.	.	4B-\	-mi-	.	4d\	-mi-	4a-\	-mi-	.	.	.	.
.	.	.	8b-/	.	.	.	.	.	.	.	.	.	.	.	8b-\	-mi-	.
=16	=16	=16	=16	=16	=16	=16	=16	=16	=16	=16	=16	=16	=16	=16	=16	=16	=16
*^	*	*	*	*	*	*	*	*	*	*	*	*	*	*	*	*	*
!LO:TX:t=P:problem=poprawki w dolnej pięciolinii, tt.52-57 trudne do odczytania	!	!	!	!	!	!	!	!	!	!	!	!	!	!	!	!	!	!
!	!LO:N:vis=4	!	!	!	!	!	!	!	!	!	!	!	!	!	!	!	!	!
8e-\	8E-\	-ni	.	8g/	8g\	.	.	8E-\	-ni	.	8e-\	-ni	8g\	-ni	.	8g\	-ni	.
4e-/	8B-\L	Be-	.	8r	4g\	.	.	8.B-\	Be-	.	4e-\	Be-	4g\	Be-	.	8r	.	.
.	8B-\J	-ne-	.	8r	.	.	.	.	.	.	.	.	.	.	.	4r	.	.
.	.	.	.	.	.	.	.	16B-\	-ne-	.	.	.	.	.	.	.	.	.
!	!LO:N:vis=4	!	!	!	!	!	!	!LO:N:vis=8	!	!	!	!	!	!	!	!	!	!
8e-/	16G\	-di-	.	8b-/	8g\	.	.	16G\	-dic-	.	8e-\	-ne-	8g\	-ne-	.	.	.	.
!	!LO:N:vis=4	!	!	!	!	!	!	!LO:N:vis=8	!	!	!	!	!	!	!	!	!	!
.	16E-\	-ctus	.	.	.	.	.	16E-\	-tus	.	.	.	.	.	.	.	.	.
!	!	!	!	!	!	!	!	!	!	!	!	!	!LO:LB:g=original	!	!	!	!	!
=17	=17	=17	=17	=17	=17	=17	=17	=17	=17	=17	=17	=17	=17	=17	=17	=17	=17	=17
4B-/	4D\	Be-	.	4ff/	4a-\	.	.	4D\	Be-	.	4f\	-dic-	4a-\	-dic-	.	4ff\	Be-	.
8B-/	4D\	-ne-	.	16ee-/LL	8a-\L	.	.	4D\	-ne-	.	8f\	-cuts	8a-\	-tus	.	16ee-\LL	.	.
.	.	.	.	16dd/	.	.	.	.	.	.	.	.	.	.	.	16dd\	.	.
8B-/	.	.	.	16cc/	8a-\J	.	.	.	.	.	8f\	qui	8a-\	qui	.	16cc\JJ	.	.
.	.	.	.	16dd/JJ	.	.	.	.	.	.	.	.	.	.	.	16dd\	-ne-	.
!LO:LB:g=original	!LO:LB:g=original	!	!	!LO:LB:g=original	!LO:LB:g=original	!	!	!LO:LB:g=original	!	!	!	!	!	!	!	!	!	!
=18	=18	=18	=18	=18	=18	=18	=18	=18	=18	=18	=18	=18	=18	=18	=18	=18	=18	=18
4B-/	8E-\L	-di-	.	8.ee-/L	4g\	.	.	(8E-\L	-dic-	.	4e-\	ve-	4g\	ve-	.	(8.ee-\	-di-	.
.	8B-\J	.	.	.	.	.	.	8B-\J)	.	.	.	.	.	.	.	.	.	.
.	.	.	.	16b-/Jk	.	.	.	.	.	.	.	.	.	.	.	16b-\)	.	.
8e-/	8G\L	-ctus	.	8b-/L	8g\L	.	.	8G\	-tus	.	8e-\	-nit	8g\	-nit	.	8b-\	-ctus	.
8B-/	8E-\J	qui	.	8ee-/J	8g\J	.	.	8E-\	qui	.	8e-\	qui	8g\	qui	.	8ee-\	qui	.
!	!	!	!	!	!	!	!	!	!	!	!LO:LB:g=original	!	!	!	!	!	!	!
=19	=19	=19	=19	=19	=19	=19	=19	=19	=19	=19	=19	=19	=19	=19	=19	=19	=19	=19
*	*	*	*	*	*	*	*	*	*	*	*	*	*	*^	*	*	*	*
4B-/	4D\	ve-	.	4ff 4a-/	4ryy	.	.	4D\	ve-	.	4f\	ve-	4a-\	ve-	.	.	4ff\	ve-	.
8B-/	8D\L	-nit	.	16ee-/LL	8a-\L	.	.	8D\	-nit	.	8f\	-nit	8a-\	-ni	.	.	(16ee-\LL	-nit	.
.	.	.	.	16dd/JJ	.	.	.	.	.	.	.	.	.	.	.	.	16dd\JJ)	.	.
8B-/	8D\J	in	.	16cc/LL	8a-\J	.	.	8D\	in	.	8f\	in	8a-\	[[qui]]	in	.	(16cc\LL	in	.
.	.	.	.	16dd/JJ	.	.	.	.	.	.	.	.	.	.	.	.	16dd\JJ)	.	.
*	*	*	*	*	*	*	*	*	*	*	*	*	*	*v	*v	*	*	*	*
!	!	!	!	!	!	!	!	!	!	!	!	!	!	!	!	!LO:LB:g=original	!	!
=20	=20	=20	=20	=20	=20	=20	=20	=20	=20	=20	=20	=20	=20	=20	=20	=20	=20	=20
!LO:N:vis=8	!LO:N:vis=8	!	!	!	!	!	!	!	!	!	!	!	!	!	!	!	!	!
8.B-/L	8.E-\L	no-	.	8.ee-L 8.g/	8.g\L	.	.	8.E-\	no-	.	8.e-\	no-	8.g\	no-	.	8.ee-\	no-	.
16B-/Jk	16E-\Jk	-mi-	.	16b-Jk 16g/	16g\Jk	.	.	16E-\	-mi-	.	16e-\	-mi-	16g\	-mi-	.	16b-\	-mi-	.
8B-/L	8E-\L	-ne	.	8b-L 8g/	8g\L	.	.	8E-\	-ne	.	8e-\	-ne	8g\	-ne	.	8b-\	-ne	.
8G/J	8G\J	qui	.	8g/J	8g\J	.	.	8G\	qui	.	8G/	qui	8g\	qui	.	8g\	qui	.
=21	=21	=21	=21	=21	=21	=21	=21	=21	=21	=21	=21	=21	=21	=21	=21	=21	=21	=21
4c/	4e- 4C\	ve-	.	4ee-/	4g\	.	.	4C/	ve-	.	4e-\	ve-	4g\	ve-	.	4ee-\	ve-	.
8fL 8D\	8ryy	-nit	.	8bn/L	8g\L	.	.	8D/	-nit	.	8f\	-nit	8g\	-nit	.	8bn\	-nit	.
8fJ 8D\	8ryy	in	.	8b/J	8g\J	.	.	8D/	in	.	8f\	in	8g\	in	.	8b\	in	.
*	*	*	*	*v	*v	*	*	*	*	*	*	*	*	*	*	*	*	*
!	!	!	!	!	!	!	!	!	!	!	!	!LO:LB:g=original	!	!	!	!	!
=22	=22	=22	=22	=22	=22	=22	=22	=22	=22	=22	=22	=22	=22	=22	=22	=22	=22
8g/L	4E-\	no-	.	4cc 4g/	.	.	4E-\	no-	.	(8g\L	no-	4g\	no-	.	4cc\	ni-	.
8c/J	.	.	.	.	.	.	.	.	.	8c\J)	.	.	.	.	.	.	.
8cL 8F\	8ryy	-mi-	.	8b-XL 8g/	.	.	8F\	-mi-	.	8c\	-mi-	8g\	-mi-	.	8b-\	-mi-	.
8fJ 8F\	8ryy	-ne	.	8a-J 8f/	.	.	8F\	-ne	.	8f\	-ne	8f\	-ne	.	8a-\	-ne	.
!	!	!	!	!	!	!	!LO:LB:g=original	!	!	!	!	!	!	!	!	!	!
=23	=23	=23	=23	=23	=23	=23	=23	=23	=23	=23	=23	=23	=23	=23	=23	=23	=23
*	*	*	*	*^	*	*	*	*	*	*	*	*	*	*	*	*	*
8e-\	4.G\	Do-	.	4.g/	4e-\	.	.	4.G\	Do-	.	(8e-\	Do-	(4e-\	Do-	.	4.g\	Do-	.
4G/	.	.	.	.	.	.	.	.	.	.	4c\)	.	.	.	.	.	.	.
.	.	.	.	.	8d\L	.	.	.	.	.	.	.	8d\)	.	.	.	.	.
8Bn 8G\	8ryy	-mi-	.	8g/	8d\J	.	.	8G\	-mi-	.	8Bn\	-mi-	8d\	-mi-	.	8g\	-mi-	.
!	!	!	!	!	!	!	!	!	!	!	!LO:LB:g=original	!	!	!	!	!	!	!
=24	=24	=24	=24	=24	=24	=24	=24	=24	=24	=24	=24	=24	=24	=24	=24	=24	=24	=24
!	!	!	!	!	!	!	!	!	!	!	!	!	!	!	!	!LO:TX:t=P::problem=dopisek ołówkiem&colon; 1 raz	!	!
8c\L	8C\	-ni	.	8a-/L	8e-\L	.	.	8C/	-ni	.	8c\	-ni	8e-\	-ni	.	8a-\	-ni	.
16e-\L	8rGG	.	.	8g/J	16g\L	.	.	8r	.	.	16e-\	Be-	16g\	Be-	.	8r	.	.
16e-\JJ	.	.	.	.	16g\JJ	.	.	.	.	.	16e-\	-ne-	16g\	-ne-	.	.	.	.
8e-\L	8rGG	.	.	8r	8g\L	.	.	8r	.	.	8e-\	-di-	8g\	-di-	.	8r	.	.
8e-\J	8C\	qui	.	8cc/	8g\J	.	.	8C/	qui	.	8e-\	-ctus	8g\	-ctus	.	8cc\	qui	.
!	!	!	!	!	!	!	!	!	!	!	!	!	!	!	!	!LO:LB:g=original	!	!
=25	=25	=25	=25	=25	=25	=25	=25	=25	=25	=25	=25	=25	=25	=25	=25	=25	=25	=25
*	*2\right	*	*	*	*	*	*	*	*	*	*	*	*	*	*	*2\right	*	*
8r	2BBn\	ve-	.	2dd/	8r	.	.	2BBn/	ve-	.	8r	.	8r	.	.	2dd\	ve-	.
8f\L	.	.	.	.	8a-\L	.	.	.	.	.	8f\	qui	8a-\	qui	.	.	.	.
8en\	.	.	.	.	8g\	.	.	.	.	.	8en\	ve-	8g\	ve-	.	.	.	.
8f\J	.	.	.	.	8a-\J	.	.	.	.	.	8f\	-nit	8a-\	-nit	.	.	.	.
=26	=26	=26	=26	=26	=26	=26	=26	=26	=26	=26	=26	=26	=26	=26	=26	=26	=26	=26
!	!	!	!	!	!	!	!	!	!	!	!	!	!	!	!	!LO:SIC:v:l:s=nit:t=dopisane ołówkiem	!	!
!	!	!	!	!	!	!	!	!	!	!	!	!	!	!	!	!LO:TX:t=P::problem=korekta ołówkiem&colon; 8ee-, dopisek&colon; 2 raz	!	!
!	!	!	!	!	!	!	!	!	!	!	!	!	!	!	!	!LO:TX:a:t=P:problem=tt.26-27 zapisane repetycją	!	!
8r	8C\	-nit	.	8ee-/	8r	.	.	8C/	-nit	.	8r	.	8r	.	.	8a-\yy	-ni	.
16e-X\LL	8rGG	.	.	8r	16g\LL	.	.	8r	.	.	16e-X\	Be-	16g\	Be-	.	8ryy	.	.
16e-\JJ	.	.	.	.	16g\JJ	.	.	.	.	.	16e-\	-ne-	16g\	-ne-	.	.	.	.
8e-\L	8rGG	.	.	8r	8g\L	.	.	8r	.	.	8e-\	-di-	8g\	-di-	.	8ryy	.	.
8e-\J	8C\	qui	.	8cc/	8g\J	.	.	8C/	qui	.	8e-\	-ctus	8g\	-ctus	.	8cc\yy	qui	.
!	!	!	!	!	!	!	!	!	!	!	!	!	!LO:LB:g=original	!	!	!	!	!
=27	=27	=27	=27	=27	=27	=27	=27	=27	=27	=27	=27	=27	=27	=27	=27	=27	=27	=27
8r	2BBn\	ve-	.	2dd/	8r	.	.	2BBn/	ve-	.	8r	.	8r	.	.	2dd\yy	ve-	.
8f\L	.	.	.	.	(>8a-\L	.	.	.	.	.	8f\	qui	8a-\	qui	.	.	.	.
8en\	.	.	.	.	8g\	.	.	.	.	.	8en\	ve-	8g\	ve-	.	.	.	.
8f\J	.	.	.	.	8a-\J)	.	.	.	.	.	8f\	-nit	8a-\	-nit	.	.	.	.
!LO:PB:g=original	!LO:PB:g=original	!	!	!LO:PB:g=original	!LO:PB:g=original	!	!	!	!	!	!	!	!	!	!	!	!	!
=28	=28	=28	=28	=28	=28	=28	=28	=28	=28	=28	=28	=28	=28	=28	=28	=28	=28	=28
*	*	*	*	*	*	*	*	*	*	*	*	*	*	*^	*	*	*	*
4e-/	4C\	-nit	.	4ee-/	4g\	.	.	4C\	-nit	.	4r	.	4r	.	.	.	4ee-\	-nit	.
4G/	4G\	in	.	4gg/	4g\	.	.	4G\	in	.	4G/	in	4g\	[[qui]]	in	.	4gg\	in	.
*	*	*	*	*	*	*	*	*	*	*	*	*	*	*v	*v	*	*	*	*
*v	*v	*	*	*	*	*	*	*	*	*	*	*	*	*	*	*	*	*
*	*	*	*v	*v	*	*	*	*	*	*	*	*	*	*	*	*	*
!	!	!	!	!	!	!	!	!	!LO:PB:g=original	!	!	!	!	!	!	!
=29	=29	=29	=29	=29	=29	=29	=29	=29	=29	=29	=29	=29	=29	=29	=29	=29
4e- 4E-\	no-	.	4ee- 4e-/	.	.	4E-\	no-	.	4e-\	no-	4e-\	no-	.	4ee-\	no-	.
8cL 8C\	-mi-	.	8ccL 8c/	.	.	8C/	-mi-	.	8c\	-mi-	8c\	-mi-	.	8cc\	-mi-	.
8cJ 8C\	-ne	.	8ccJ 8c/	.	.	8C/	-ne	.	8c\	-ne	8c\	-ne	.	8cc\	-ne	.
!	!	!	!	!	!	!LO:LB:g=original	!	!	!	!	!	!	!	!	!	!
=30	=30	=30	=30	=30	=30	=30	=30	=30	=30	=30	=30	=30	=30	=30	=30	=30
4.c 4.F\	Do-	.	4.an 4.e-/	.	.	4.F\	Do-	.	4.c\	Do-	4.e-\	Do-	.	4.an\	Do-	.
8c 8F\	-mi-	.	8a 8e-/	.	.	8F\	-mi-	.	8c\	-mi-	8e-\	-mi-	.	8a\	-mi-	.
=31	=31	=31	=31	=31	=31	=31	=31	=31	=31	=31	=31	=31	=31	=31	=31	=31
*^	*	*	*^	*	*	*	*	*	*	*	*	*	*	*	*	*
8ryy	8B-L 8BB-\	ni	.	8b-/L	8d\	.	.	8BB-/	-ni	.	8B-\	-ni	8d\	-ni	.	8b-\	-ni	.
8r	8BB-\	Be-	.	8dd/	8rc	.	.	(8BB-/L	Be-	.	8r	.	8r	.	.	(8dd\L	Be-	.
4r	8C\	.	.	8an/	4r	.	.	8C/J)	.	.	4r	.	4r	.	.	8an\J)	.	.
.	8D\J	-ne-	.	8b-/J	.	.	.	8D/	-ne-	.	.	.	.	.	.	8b-\	-ne-	.
=32	=32	=32	=32	=32	=32	=32	=32	=32	=32	=32	=32	=32	=32	=32	=32	=32	=32	=32
*	*	*	*	*	*	*	*	*2\right	*	*	*	*	*	*	*	*	*	*
8r	2E-\	-dic-	.	2cc/	8r	.	.	2E-\	-dic-	.	8r	.	8r	.	.	2cc\	-dic-	.
8F/L	.	.	.	.	8f\L	qui	.	.	.	.	8F/	qui	8f\	qui	.	.	.	.
8G-X/	.	.	.	.	(>8g-X\	ve-	.	.	.	.	(8G-X/L	ve-	(8g-X\L	ve-	.	.	.	.
8F/J	.	.	.	.	8f\J)	-nit	.	.	.	.	8F/J)	.	8f\J)	.	.	.	.	.
!	!	!	!	!	!	!	!	!	!	!	!	!	!LO:LB:g=original	!	!	!LO:LB:g=original	!	!
=33	=33	=33	=33	=33	=33	=33	=33	=33	=33	=33	=33	=33	=33	=33	=33	=33	=33	=33
8F/	8D\L	-tus	.	8b-/L	8f\	.	.	8D\	-tus	.	8F/	-nit	8f\	-nit	.	8b-\	-tus	.
8r	(>8BB-\	Be-	.	8dd/	8rc	.	.	(8BB-/L	Be-	.	8r	.	8r	.	.	8dd\L	Be-	.
4r	8C\)	.	.	8an/	4r	.	.	8C/J)	.	.	4r	.	4r	.	.	8an\J	.	.
.	8D\J	-ne-	.	8b-/J	.	.	.	8D\	-ne-	.	.	.	.	.	.	8b-\	-ne-	.
=34	=34	=34	=34	=34	=34	=34	=34	=34	=34	=34	=34	=34	=34	=34	=34	=34	=34	=34
8r	2E-\	-dic-	.	2cc/	8r	.	.	2E-\	-dic-	.	8r	.	8r	.	.	2cc\	-dic-	.
8F/	.	.	.	.	8f\	.	.	.	.	.	8F/	qui	8f\	qui	.	.	.	.
8G-X/L	.	.	.	.	8g-X\L	.	.	.	.	.	(8G-X/L	ve-	(8g-X\L	ve-	.	.	.	.
8F/J	.	.	.	.	8f\J	.	.	.	.	.	8F/J)	.	8f\J)	.	.	.	.	.
!	!	!	!	!	!	!	!	!	!	!	!LO:LB:g=original	!	!	!	!	!	!	!
=35	=35	=35	=35	=35	=35	=35	=35	=35	=35	=35	=35	=35	=35	=35	=35	=35	=35	=35
8F/	8D\	-tus	.	8b-/	8f\	.	.	8D\	-tus	.	8F/	-nit	8f\	-nit	.	8b-\	-tus	.
8r	8rc	.	.	8ryy	8rd	.	.	8r	.	.	8r	.	8r	.	.	8r	.	.
4r	8.F\L	Be-	.	4r	8.d\L	.	.	8.F\	Be-	.	4r	.	8.d\	Be-	.	4r	.	.
.	16E-\Jk	ne-	.	.	16c\Jk	.	.	16E-\	-ne-	.	.	.	16c\	-ne-	.	.	.	.
!	!	!	!	!	!	!	!	!LO:LB:g=original	!	!	!	!	!	!	!	!	!	!
=36	=36	=36	=36	=36	=36	=36	=36	=36	=36	=36	=36	=36	=36	=36	=36	=36	=36	=36
4ryy	8E-\L	-dic-	.	4r	8c\L	.	.	8E-\	-dic-	.	4r	.	8c\	-di-	.	4r	.	.
.	8D\J	-tus	.	.	8B-\J	.	.	8D\	-tus	.	.	.	8B-\	-ctus	.	.	.	.
8.A-/L	4r	.	.	8.ff/L	4r	qui	.	4r	.	.	(8.A-\L	qui	4r	.	.	(8.ff\L	qui	.
16G/Jk	.	.	.	16ee-/Jk	.	.	.	.	.	.	16G\Jk)	.	.	.	.	16ee-\Jk)	.	.
=37	=37	=37	=37	=37	=37	=37	=37	=37	=37	=37	=37	=37	=37	=37	=37	=37	=37	=37
8G/L	4r	.	.	8ee-/L	4r	ve-	.	4r	.	.	8G/	ve-	4r	.	.	8dd\	ve-	.
8F/J	.	.	.	8dd/J	.	-nit	.	.	.	.	8F/	-nit	.	.	.	8cc\	-nit	.
4B-\	4BB-\	in	.	4dd/	4f\	.	.	4BB-/	in	.	4B-\	in	4f\	in	.	4cc\	in	.
*v	*v	*	*	*	*	*	*	*	*	*	*	*	*	*	*	*	*	*
*	*	*	*v	*v	*	*	*	*	*	*	*	*	*	*	*	*	*
!LO:LB:g=original	!	!	!LO:LB:g=original	!	!	!	!	!	!	!	!	!	!	!	!	!
=38	=38	=38	=38	=38	=38	=38	=38	=38	=38	=38	=38	=38	=38	=38	=38	=38
4B- 4BB-\	no-	.	4ee-X 4g-X\	.	.	4BB-/	no-	.	4B-\	no-	4g-X\	no-	.	4ee-\	no-	.
8B-L 8BB-\	-mi-	.	8eenL 8gn\	.	.	8BB-/	-mi-	.	8B-\	-mi-	8gn\	-mi-	.	8een\	-mi-	.
8B-J 8BB-\	-ne	.	8eeJ 8g\	.	.	8BB-/	-ne	.	8B-\	-ne	8g\	-ne	.	8ee\	-ne	.
!	!	!	!	!	!	!	!	!	!	!	!LO:LB:g=original	!	!	!LO:LB:g=original	!	!
=39	=39	=39	=39	=39	=39	=39	=39	=39	=39	=39	=39	=39	=39	=39	=39	=39
*	*	*	*	*	*	*	*	*	*2\right	*	*2\right	*	*	*	*	*
!	!	!LO:DY:a:rj	!	!	!LO:DY:a:rj	!	!	!LO:DY:rj	!	!	!	!	!LO:DY:rj	!	!	!
[2d [>2BB-\	Do-	f	[2ff [>2a-\	.	f	[2BB-/	Do-	f	[2d\	Do-	[2a-\	Do-	f	[2ff\	Do-	.
=40	=40	=40	=40	=40	=40	=40	=40	=40	=40	=40	=40	=40	=40	=40	=40	=40
4.d] 4.BB-\]	.	.	4.ff] 4.a-\]	.	.	4.BB-/]	.	.	4.d\]	.	4.a-\]	.	.	4.ff\]	.	.
8f 8BB-\	-mi-	.	8dd 8a-\	.	.	8BB-/	-mi-	.	8f\	-mi-	8a-\	-mi-	.	8dd\	-mi-	.
!	!	!	!	!	!	!	!	!	!LO:LB:g=original	!	!	!	!	!	!	!
=41	=41	=41	=41	=41	=41	=41	=41	=41	=41	=41	=41	=41	=41	=41	=41	=41
4d 4BB-;\	-ni	.	4b- 4a-;/	.	.	4BB-;/	-ni	.	4d;\	-ni	4a-;\	-ni	.	4b-;\	-ni	.
4r	.	.	4r	.	.	4r	.	.	4r	.	4r	.	.	4r	.	.
.	.	.	.	.	p	.	.	p	.	.	.	.	.	.	.	.
=42	=42	=42	=42	=42	=42	=42	=42	=42	=42	=42	=42	=42	=42	=42	=42	=42
*^	*	*	*	*	*	*	*	*	*	*	*	*	*	*	*	*
!	!	!	!	!	!	!	!	!	!	!LO:TX:a:t=2	!	!	!	!LO:DY:rj	!	!	!LO:DY:rj
!	!	!	!	!	!	!	!	!	!	!LO:N:vis=0	!	!	!	!	!	!	!
2rc	4E-\	Be-	.	4b- 4g/	.	.	4E-\	Be-	.	1r	.	4g\	Be-	p	4b-\	Be-	p
.	4E-\	-ne-	.	4cc 4a-/	.	.	4E-\	-ne-	.	.	.	4a-\	-ne-	.	4cc\	-ne-	.
!	!	!	!	!	!	!	!LO:LB:g=original	!	!	!	!	!	!	!	!	!	!
=43	=43	=43	=43	=43	=43	=43	=43	=43	=43	=43	=43	=43	=43	=43	=43	=43	=43
2rc	4E-\	-di-	.	4b- 4g/	.	.	4E-\	-dic-	.	.	.	4g\	-dic-	.	4b-\	-dic-	.
.	8E-\	-ctus	.	8g 8e-/	.	.	8E-\	-tus	.	.	.	8e-\	-tus	.	8g\	-tus	.
.	8r	.	.	8r	.	.	8r	.	.	.	.	8r	.	.	8r	.	.
=44	=44	=44	=44	=44	=44	=44	=44	=44	=44	=44	=44	=44	=44	=44	=44	=44	=44
*	*	*	*	*^	*	*	*	*	*	*	*	*	*	*	*	*	*
!	!	!	!	!	!	!	!	!	!	!	!	!	!LO:TX:a:t=2	!	!	!	!	!
!	!	!	!	!	!	!	!	!	!	!	!	!	!LO:N:vis=0	!	!	!	!	!
4B-/	4E-\	Be-	.	4g/	2r	.	.	4E-\	Be-	.	4B-\	Be-	1r	.	.	4g\	Be-	.
4c/	4E-\	-ne-	.	4a-/	.	.	.	4E-\	-ne-	.	4c\	-ne-	.	.	.	4a-\	ne-	.
*v	*v	*	*	*	*	*	*	*	*	*	*	*	*	*	*	*	*	*
=45	=45	=45	=45	=45	=45	=45	=45	=45	=45	=45	=45	=45	=45	=45	=45	=45	=45
4B- 4E-\	-di-	.	4g/	2r	.	.	4E-\	-dic-	.	4B-\	-dic-	.	.	.	4g\	-dic-	.
8GL 8E-\	-ctus	.	8e-/L	.	.	.	8E-\	-tus	.	8G/	-tus	.	.	.	8e-\	-tus	.
8GJ 8E-\	qui	.	8e-/J	.	.	.	8E-\	qui	.	8G/	qui	.	.	.	8e-\	qui	.
!	!	!	!	!	!	!	!	!	!	!	!	!	!	!	!LO:LB:g=original	!	!
=46	=46	=46	=46	=46	=46	=46	=46	=46	=46	=46	=46	=46	=46	=46	=46	=46	=46
4G 4BB-\	ve-	.	4en/	8r	.	.	4BB-/	ve-	.	4G/	ve-	8r	.	.	4en/	ve-	.
.	.	.	.	8B-\	.	.	.	.	.	.	.	8B-/	qui	.	.	.	.
8A-L 8BB-\	-nit	.	8fL 8B-/	8ryy	.	.	8BB-/	-nit	.	8A-/	-nit	8B-/	ve-	.	8f/	-nit	.
8A-J 8BB-\	qui	.	8fJ 8B-/	8ryy	.	.	8BB-/	qui	.	8A-/	qui	8B-/	-nit	.	8f/	qui	.
!	!	!	!	!	!	!	!	!	!	!	!	!LO:LB:g=original	!	!	!	!	!
=47	=47	=47	=47	=47	=47	=47	=47	=47	=47	=47	=47	=47	=47	=47	=47	=47	=47
*	*	*	*	*^	*	*	*	*	*	*	*	*	*	*	*	*	*
4An 4E-\	ve-	.	4f#X/	8r	8ryy	.	.	4E-\	ve-	.	4An/	ve-	8r	.	.	4f#X/	ve-	.
.	.	.	.	8c\	8c/	.	.	.	.	.	.	.	8c\	qui	.	.	.	.
8B-L 8E-\	-nit	.	8g/L	8B-\L	8ryy	.	.	8E-\	-nit	.	8B-\	-nit	8B-\	ve-	.	8g/	-nit	.
8B-\J	in	.	8g/J	16e-\L	8ryy	.	.	8r	.	.	8B-\	in	16e-\	-nit	.	8g/	in	.
.	.	.	.	16e-\JJ	.	.	.	.	.	.	.	.	16e-\	in	.	.	.	.
*	*	*	*	*v	*v	*	*	*	*	*	*	*	*	*	*	*	*	*
!LO:LB:g=original	!	!	!LO:LB:g=original	!LO:LB:g=original	!	!	!	!	!	!	!LO:LB:g=original	!	!	!	!	!	!
=48	=48	=48	=48	=48	=48	=48	=48	=48	=48	=48	=48	=48	=48	=48	=48	=48	=48
*^	*	*	*	*	*	*	*	*	*	*	*	*	*	*	*	*	*
!	!	!	!	!	!	!	!	!LO:TX:a:t=1	!	!	!	!	!	!	!	!	!	!
8c\L	2rGG	no-	.	8a-/L	4e-\	.	.	2r	.	.	(8c\L	no-	4e-\	no-	.	(8a-\L	no-	.
8B-\J	.	.	.	8g/J	.	.	.	.	.	.	8B-\J)	.	.	.	.	8g\J)	.	.
8A-\L	.	-mi-	.	8f/L	8e-\L	.	.	.	.	.	8A-\	-mi-	8e-\	-mi-	.	8f/	-mi-	.
8An\J	.	-ne	.	8cc/J	8e-\J	.	.	.	.	.	8An\	-ne	8e-\	-ne	.	8cc\	-ne	.
!	!	!	!	!	!	!	!	!LO:PB:g=original	!	!	!	!	!	!	!	!	!	!
=49	=49	=49	=49	=49	=49	=49	=49	=49	=49	=49	=49	=49	=49	=49	=49	=49	=49	=49
8B-\L	8.BB-\L	Do-	.	8.b-/L	8d\L	.	.	8.BB-/	Do-	.	(8B-\L	Do-	(8d\L	Do-	.	8.b-\	Do-	.
8c\J	.	-mi-	.	.	8e-\J	.	.	.	.	.	8c\J)	.	8e-\J)	.	.	.	.	.
.	16BB-\Jk	.	.	16b-/Jk	.	.	.	16BB-/	-mi-	.	.	.	.	.	.	16b-\	-mi-	.
!LO:SIC:v:l:s=ni	!	!	!	!	!	!	!	!LO:SIC:v:l:s=ni	!	!	!	!	!	!	!	!	!	!
8c#X\L	8BB-\	-ne	.	8b-/	8en\L	.	.	8BB-/	-ne	.	8c#X\	-mi-	8en\	-mi-	.	8b-\	-ni	.
8d\J	8r	.	.	8r	8f\J	.	.	8r	.	.	8d\	-ni	8f\	-ni	.	8r	.	.
*v	*v	*	*	*	*	*	*	*	*	*	*	*	*	*	*	*	*	*
=50	=50	=50	=50	=50	=50	=50	=50	=50	=50	=50	=50	=50	=50	=50	=50	=50	=50
!	!	!	!	!	!	!	!	!	!	!	!	!	!	!	!LO:TX:a:t=1	!	!
4B- 4E-\	Be-	.	2rff	4g\	.	.	4E-\	Be-	.	4B-\	Be-	4g\	Be-	.	2r	.	.
4c 4E-\	-ne-	.	.	4a-\	.	.	4E-\	-ne-	.	4cn\	-ne-	4a-\	-ne-	.	.	.	.
=51	=51	=51	=51	=51	=51	=51	=51	=51	=51	=51	=51	=51	=51	=51	=51	=51	=51
4B- 4E-\	-di-	.	8r	4g\	.	.	4E-\	-dic-	.	4B-\	-di-	4g\	-di-	.	8r	.	.
.	.	.	8e-/L	.	.	.	.	.	.	.	.	.	.	.	(8e-/L	Be-	.
8G 8E-\	-ctus	.	8g/	8e-\	.	.	8E-\	-tus	.	8G/	-ctus	8e-\	-ctus	.	8g/J)	.	.
8r	.	.	8b-/J	8r	.	.	8r	.	.	8r	.	8r	.	.	8b-\	-ne-	.
!	!	!	!	!	!	!	!	!	!	!	!	!LO:LB:g=original	!	!	!LO:LB:g=original	!	!
=52	=52	=52	=52	=52	=52	=52	=52	=52	=52	=52	=52	=52	=52	=52	=52	=52	=52
4G 4E-\	Be-	.	4ee-/	4b-\	.	.	4E-\	Be-	.	4G/	Be-	4b-\	Be-	.	4ee-\	-dic-	.
4A- 4E-\	-ne-	.	8ee-/L	4cc\	.	.	4E-\	-ne-	.	4A-/	-ne-	4cc\	-ne-	.	8ee-\	-[[c]]tus	.
.	.	.	8ee-/J	.	.	.	.	.	.	.	.	.	.	.	8ee-\	qui	.
=53	=53	=53	=53	=53	=53	=53	=53	=53	=53	=53	=53	=53	=53	=53	=53	=53	=53
4G 4E-\	-dic-	.	8ee-/L	4b-\	.	.	4E-\	-dic-	.	4G/	-di-	4b-\	-di-	.	(8ee-\L	ve-	.
.	.	.	16dd/L	.	.	.	.	.	.	.	.	.	.	.	16dd\L	.	.
.	.	.	16cc/JJ	.	.	.	.	.	.	.	.	.	.	.	16cc\JJ)	.	.
8E- 8GG/	-tus	.	8b-/L	8g\	.	.	8E-\	-tus	.	8E-/	-ctus	8g\	-ctus	.	8b-\	-nit	.
*	*	*	*	*	*below	*	*	*	*	*	*	*	*	*	*	*	*
8r	.	.	8b-/J	8r	qui	.	8r	.	.	8r	.	8r	.	.	8b-\	qui	.
*	*	*	*v	*v	*	*	*	*	*	*	*	*	*	*	*	*	*
!	!	!	!	!	!	!	!	!	!LO:LB:g=original	!	!	!	!	!	!	!
=54	=54	=54	=54	=54	=54	=54	=54	=54	=54	=54	=54	=54	=54	=54	=54	=54
4B- 4G\	ve-	.	4dd-X 4e-/	.	.	4G\	ve-	.	4B-^\	ve-	4e-\	ve-	.	4dd-X\	ve-	.
8cL 8A-\	-nit	.	8ccL 8e-/	.	.	8A-\	-nit	.	8c\	-nit	8e-\	-nit	.	8cc\	-nit	.
8cJ 8A-\	qui	.	8ccJ 8e-/	.	.	8A-\	qui	.	8c\	qui	8e-\	qui	.	8cc\	qui	.
!	!	!	!	!	!	!LO:LB:g=original	!	!	!	!	!	!	!	!	!	!
=55	=55	=55	=55	=55	=55	=55	=55	=55	=55	=55	=55	=55	=55	=55	=55	=55
*^	*	*	*	*	*	*	*	*	*	*	*	*	*	*	*	*
!	!	!	!	!	!	!	!LO:TX:t=P:problem=mixed beam	!	!	!	!	!	!	!	!	!	!
4c/	8An\L	ve-	.	4ee- 4f/	.	.	(8An\L	ve-	.	4c\	ve-	4f\	ce-	.	4ee-\	ve-	.
.	8AAn\J	.	.	.	.	.	8AAn/J)	.	.	.	.	.	.	.	.	.	.
8dL 8BB-\	8ryy	-nit	.	8ddnL 8f/	.	.	8BB-/	-nit	.	8d\	-nit	8f\	-nit	.	8ddn\	-nit	.
8fJ 8BBn\	8ryy	in	.	8ddJ 8a-/	.	.	8BBn/	in	.	8f\	in	8a-\	in	.	8dd\	in	.
=56	=56	=56	=56	=56	=56	=56	=56	=56	=56	=56	=56	=56	=56	=56	=56	=56	=56
!	!	!	!	!	!	!	!	!	!	!	!	!	!	!	!LO:N:vis=8.	!	!
8ryy	8e-L 8C\	no-	.	8ee-L 8g/	.	.	8C/	no-	.	8e-\	no-	8g\	no-	.	8ee-\	no-	.
16ryy	16dL 16AA-\	-mi-	.	16ccL 16a-/	.	.	16AA-/	-mi-	.	16c\	-mi-	16a-\	-mi-	.	16cc\	-mi-	.
16ryy	16cJJ 16AA-\	-ne	.	16a-JJ 16f/	.	.	16AA-/	-ne	.	16c\	-ne	16f\	-ne	.	16a-\	-ne	.
8ryy	8B-L 8BB-\	Do-	.	8gL 8e-/	.	.	8BB-/	Do-	.	8B-\	Do-	8e-\	Do-	.	8g\	Do-	.
8B-\	8BB-\J	-mi-	.	8fJ 8d/	.	.	8BB-/	-mi-	.	8d\	-mi-	8d\	-mi-	.	8f\	-mi-	.
*v	*v	*	*	*	*	*	*	*	*	*	*	*	*	*	*	*	*
!LO:LB:g=original	!	!	!LO:LB:g=original	!	!	!	!	!	!	!	!LO:PB:g=original	!	!	!LO:LB:g=original	!	!
=57	=57	=57	=57	=57	=57	=57	=57	=57	=57	=57	=57	=57	=57	=57	=57	=57
!LO:TX:t=P:problem=poprawka w dolnej warstwie	!	!	!	!	!	!	!	!	!	!	!	!	!	!	!	!
8B-L 8D\	-ni	.	8a-L 8f/	.	.	(8BB-\L	-ni	.	(8d\L	-ni	(8f\L	-ni	.	(8a-\L	-ni	.
8B-J 8E-\	.	.	8gJ 8e-/	.	.	8E-\J)	.	.	8e-\J)	.	8e-\J)	.	.	8g\J)	.	.
8r	.	.	8r	.	.	8r	.	.	8r	.	8r	.	.	8r	.	.
8B- 8G\	qui	.	8b- 8e-/	.	.	8G\	qui	.	8B-\	qui	8e-\	qui	.	8b-\	qui	.
=58	=58	=58	=58	=58	=58	=58	=58	=58	=58	=58	=58	=58	=58	=58	=58	=58
4B- 4G^\	ve-	.	4dd-X 4e-/	.	.	4G\	ve-	.	4B-\	ve-	4e-^\	ve-	.	4dd-X\	ve-	.
8cL 8A-\	-nit	.	8ccL 8e-/	.	.	8A-\	-nit	.	8c\	-nit	8e-\	-nit	.	8cc\	-nit	.
8cJ 8A-\	qui	.	8ccJ 8e-/	.	.	8A-\	qui	.	8c\	qui	8e-\	qui	.	8cc\	qui	.
!	!	!	!	!	!	!	!	!	!LO:LB:g=original	!	!	!	!	!	!	!
=59	=59	=59	=59	=59	=59	=59	=59	=59	=59	=59	=59	=59	=59	=59	=59	=59
!	!	!	!	!	!	!LO:TX:t=P:problem=mixed beam	!	!	!	!	!	!	!	!	!	!
8cL 8An\	ve-	.	4ee- 4f/	.	.	(8An\L	ve-	.	4c\	ve-	4f^\	ve-	.	4ee-\	ve-	.
8AAn\J	.	.	.	.	.	8AAn/J)	.	.	.	.	.	.	.	.	.	.
8dL 8BB-\	-nit	.	8ddnL 8f/	.	.	8BB-/	-nit	.	8d\	-nit	8f\	-nit	.	8ddn\	-nit	.
8fJ 8BBn\	in	.	8ddJ 8a-/	.	.	8BBn/	in	.	8f\	in	8a-\	in	.	8dd\	in	.
!	!	!	!	!	!	!LO:LB:g=original	!	!	!	!	!	!	!	!	!	!
=60	=60	=60	=60	=60	=60	=60	=60	=60	=60	=60	=60	=60	=60	=60	=60	=60
!	!	!	!	!	!	!	!	!	!:cały takt	!	!	!	!	!LO:TX:t=P:problem=korekta rytmu ręką głównego skryptora	!	!
8e-L 8C\	no-	.	8ee-L 8g/	.	.	8C/	no-	.	8e-\	no-	8g\	no-	.	8ee-/	no-	.
16cL 16AA-\	-mi-	.	16ccL 16a-/	.	.	16AA-/	-mi-	.	16c\	-mi-	16a-\	-mi-	.	16cc\	-mi-	.
16cJJ 16AA-\	-ne	.	16a-JJ 16f/	.	.	16AA-/	-ne	.	16c\	-ne	16f\	-ne	.	16a-\	-ne	.
8B-L 8BB-\	Do-	.	8gL 8e-/	.	.	8BB-/	Do-	.	8B-\	Do-	8e-\	Do-	.	8g\	Do-	.
!	!	!	!	!	!	!	!	!	!	!	!	!	!	!LO:TX:a:t=P:problem=pojedyncza kreska taktowa	!	!
8A-J 8BB-\	-mi-	.	8fJ 8d/	.	.	8BB-/	-mi-	.	8A-\	-mi-	8d\	-mi-	.	8f\	-mi-	.
!	!	!	!	!	!	!	!	!	!	!	!LO:LB:g=original	!	!	!	!	!
=61||	=61||	=61||	=61||	=61||	=61||	=61||	=61||	=61||	=61||	=61||	=61||	=61||	=61||	=61||	=61||	=61||
*	*	*	*^	*	*	*	*	*	*	*	*	*	*	*	*	*
!	!	!	!LO:TX:a:t=piu Mosſo	!	!	!	!LO:TX:a:t=piu Mosſo	!	!	!	!	!LO:TX:a:t=piu Mosſo	!	!	!	!	!
8G 8E-\	-ni	.	8e-/	8e-\	.	.	8E-\	-ni	.	8G/	-ni	8e-\	-ni	.	8e-/	-ni	.
!	!	!	!	!	!	!	!	!	!	!	!	!	!	!	!LO:TX:a:t=piu Mosſo	!	!
8r	.	.	8r	8ryy	.	.	8r	.	.	8r	.	8r	.	.	8r	.	.
4F 4D\	Ho-	.	4cc 4a-\	4ryy	.	.	4D\	Ho-	.	4F/	Ho-	4a-\	Ho-	.	4cc\	Ho-	.
*	*	*	*v	*v	*	*	*	*	*	*	*	*	*	*	*	*	*
!	!	!	!	!	!	!	!	!	!	!	!	!	!	!LO:LB:g=original	!	!
=62	=62	=62	=62	=62	=62	=62	=62	=62	=62	=62	=62	=62	=62	=62	=62	=62
8GL 8E-\	-san-	.	8b-L 8g/	.	.	8E-\	-san-	.	8G/	-san-	8g\	-san-	.	8b-\	-san-	.
16B-Jk 16G\	-na	.	16gJk 16e-/	.	.	16G\	-na	.	16B-/	-na	16e-\	-na	.	16g\	-na	.
16r	.	.	16r	.	.	16r	.	.	16r	.	16r	.	.	16r	.	.
4F 4D\	Ho-	.	4cc 4a-\	.	.	4D\	Ho-	.	4F/	Ho-	4a-\	Ho-	.	4cc\	Ho-	.
=63	=63	=63	=63	=63	=63	=63	=63	=63	=63	=63	=63	=63	=63	=63	=63	=63
8GL 8E-\	-san-	.	8b-L 8g/	.	.	8E-\	-san-	.	8G/	-san-	8g\	-san-	.	8b-\	-san-	.
16B-Jk 16G\	-na	.	16gJk 16e-/	.	.	16G\	-na	.	16B-\	-na	16e-\	-na	.	16g\	-na	.
16r	.	.	16r	.	.	16r	.	.	16r	.	16r	.	.	16r	.	.
8FL 8D\	in	.	8ccL 8a-/	.	.	8D\	in	.	8F/	in	8a-\	in	.	8cc\	in	.
!	!	!	!	!	!	!	!	!	!	!	!	!	!	!LO:SIC:v:l:s=ex	!	!
8FJ 8D\	ex-	.	8ccJ 8a-/	.	.	8D\	ex-	.	8F/	ex-	8a-\	ex-	.	8cc\	nex-	.
!	!	!	!	!	!	!	!	!	!LO:LB:g=original	!	!	!	!	!	!	!
=64	=64	=64	=64	=64	=64	=64	=64	=64	=64	=64	=64	=64	=64	=64	=64	=64
*^	*	*	*	*	*	*	*	*	*	*	*	*	*	*	*	*
8ryy	8GL 8E-\	cel-	.	8b-L 8g/	.	.	(8E-\L	-cel-	.	(8G\L	-cel-	(8g\L	-cel-	.	(8b-\L	-cel-	.
8c\L	8AA-\J	.	.	8a- 8f/	.	.	8AA-\J)	.	.	8c\	.	8f\	.	.	8a-\	.	.
8B-\	4BB-\	.	.	8g 8e-/	.	.	4BB-\	.	.	8B-\	.	8e-\	.	.	8g\	.	.
8A-\J	.	.	.	8fJ 8d/	.	.	.	.	.	8A-\J)	.	8d\J)	.	.	8f\J)	.	.
*v	*v	*	*	*	*	*	*	*	*	*	*	*	*	*	*	*	*
!	!	!	!	!	!	!LO:LB:g=original	!	!	!	!	!	!	!	!	!	!
=65	=65	=65	=65	=65	=65	=65	=65	=65	=65	=65	=65	=65	=65	=65	=65	=65
8G 8E-\	sis	.	8e-/	.	.	8E-\	-sis	.	8G/	-sis	8e-\	-sis	.	8e-/	-sis	.
8r	.	.	8r	.	.	8r	.	.	8r	.	8r	.	.	8r	.	.
8GL 8BB-\	in	.	8b-L 8e-/	.	.	8BB-/	in	.	8G/	in	8e-\	in	.	8b-\	in	.
8GJ 8BB-\	ex-	.	8b-J 8en/	.	.	8BB-/	ex-	.	8G/	ex-	8en\	ex-	.	8b-\	ex-	.
!LO:LB:g=original	!	!	!LO:LB:g=original	!	!	!	!	!	!	!	!LO:LB:g=original	!	!	!	!	!
=66	=66	=66	=66	=66	=66	=66	=66	=66	=66	=66	=66	=66	=66	=66	=66	=66
*^	*	*	*^	*	*	*	*	*	*	*	*	*	*	*	*	*
8A-/L	2BB-\	-cel-	.	2b-/	8f\L	.	.	2BB-/	-cel-	.	(8A-\L	-cel-	(8f\L	-cel-	.	2b-\	-cel-	.
8G/	.	.	.	.	8en\	.	.	.	.	.	8G\	.	8en\	.	.	.	.	.
8A-/	.	.	.	.	8f\	.	.	.	.	.	8A-\	.	8f\	.	.	.	.	.
8An/J	.	.	.	.	8f#X\J	.	.	.	.	.	8An\J)	.	8f#X\J)	.	.	.	.	.
=67	=67	=67	=67	=67	=67	=67	=67	=67	=67	=67	=67	=67	=67	=67	=67	=67	=67	=67
8B-/	8E-\	-sis	.	8b-/	8g\	.	.	8E-\	-sis	.	8B-\	-sis	8g\	-sis	.	8b-\	-sis	.
8r	8ryy	.	.	8r	8ryy	.	.	8r	.	.	8r	.	8r	.	.	8r	.	.
8GL 8BB-/	8ryy	in	.	8b-L 8e-/	8ryy	.	.	8BB-/	in	.	8G/	in	8e-\	in	.	8b-\	in	.
8GJ 8BB-/	8ryy	ex-	.	8b-J 8e-/	8ryy	.	.	8BB-/	ex-	.	8G/	ex-	8en\	ex-	.	8b-\	ex-	.
=68	=68	=68	=68	=68	=68	=68	=68	=68	=68	=68	=68	=68	=68	=68	=68	=68	=68	=68
8A-/L	2BB-\	-cel-	.	2b-/	8f\L	.	.	2BB-/	-cel-	.	(8A-/L	-cel-	(8f\L	-cel-	.	2b-\	-cel-	.
8G/	.	.	.	.	8en\	.	.	.	.	.	8G/	.	8en\	.	.	.	.	.
8A-/	.	.	.	.	8f\	.	.	.	.	.	8A-/	.	8f\	.	.	.	.	.
8F/J	.	.	.	.	8d\J	.	.	.	.	.	8F/J)	.	8d\J)	.	.	.	.	.
=69	=69	=69	=69	=69	=69	=69	=69	=69	=69	=69	=69	=69	=69	=69	=69	=69	=69	=69
8G/	8E-\	-sis	.	8b-/	8e-\	.	.	8E-\	-sis	.	8G/	-sis	8e-\	-sis	.	8b-\	-sis	.
8r	8r	.	.	8r	8r	.	.	8r	.	.	8r	.	8r	.	.	8r	.	.
8B-L 8E-\	8ryy	in	.	8gL 8e-/	8ryy	.	.	8E-\	in	.	8B-\	in	8e-\	in	.	8g\	in	.
8B-J 8E-\	8ryy	ex-	.	8gJ 8e-/	8ryy	.	.	8E-\	ex-	.	8B-\	ex-	8e-\	ex-	.	8g\	ex-	.
*v	*v	*	*	*	*	*	*	*	*	*	*	*	*	*	*	*	*	*
*	*	*	*v	*v	*	*	*	*	*	*	*	*	*	*	*	*	*
!	!	!	!	!	!	!	!	!	!LO:LB:g=original	!	!	!	!	!	!	!
=70	=70	=70	=70	=70	=70	=70	=70	=70	=70	=70	=70	=70	=70	=70	=70	=70
2B- 2E-\	-cel-	.	2g 2e-/	.	.	2E-\	-cel-	.	2B-\	-cel-	2e-\	-cel-	.	2g\	-cel-	.
=71	=71	=71	=71	=71	=71	=71	=71	=71	=71	=71	=71	=71	=71	=71	=71	=71
2B- 2E-\	-sis	.	2g 2e-;/	.	.	2E-;\	-sis	.	2B-;\	-sis	2e-;\	-sis	.	2g;\	-sis	.
==	==	==	==	==	==	==	==	==	==	==	==	==	==	==	==	==
*-	*-	*-	*-	*-	*-	*-	*-	*-	*-	*-	*-	*-	*-	*-	*-	*-
!!!system-decoration: [g1]{(s5,s6)}
!!!RDF**kern: > = above
!!!ENC: Marta Lawrence
!!!END: 2021-01-22
!!!ENC: Krzysztof Stępień
!!!END: 2021-01-11
